Numix/22/actions/edit-clear-locationbar-rtl.svg

<?xml version="1.0" encoding="UTF-8" standalone="no"?>
<svg
   xmlns:dc="http://purl.org/dc/elements/1.1/"
   xmlns:cc="http://creativecommons.org/ns#"
   xmlns:rdf="http://www.w3.org/1999/02/22-rdf-syntax-ns#"
   xmlns:svg="http://www.w3.org/2000/svg"
   xmlns="http://www.w3.org/2000/svg"
   xmlns:sodipodi="http://sodipodi.sourceforge.net/DTD/sodipodi-0.dtd"
   xmlns:inkscape="http://www.inkscape.org/namespaces/inkscape"
   viewBox="0 0 22 22"
   id="svg2"
   version="1.1"
   inkscape:version="0.91 r"
   sodipodi:docname="edit-clear-locationbar-rtl.svg"
   width="22"
   height="22">
  <metadata
     id="metadata12">
    <rdf:RDF>
      <cc:Work
         rdf:about="">
        <dc:format>image/svg+xml</dc:format>
        <dc:type
           rdf:resource="http://purl.org/dc/dcmitype/StillImage" />
        <dc:title></dc:title>
      </cc:Work>
    </rdf:RDF>
  </metadata>
  <defs
     id="defs10" />
  <sodipodi:namedview
     pagecolor="#ffffff"
     bordercolor="#666666"
     borderopacity="1"
     objecttolerance="10"
     gridtolerance="10"
     guidetolerance="10"
     inkscape:pageopacity="0"
     inkscape:pageshadow="2"
     inkscape:window-width="1920"
     inkscape:window-height="1056"
     id="namedview8"
     showgrid="false"
     inkscape:zoom="16.15"
     inkscape:cx="-3.4157525"
     inkscape:cy="9.8452078"
     inkscape:window-x="0"
     inkscape:window-y="24"
     inkscape:window-maximized="1"
     inkscape:current-layer="svg2" />
  <g
     id="g4231"
     transform="translate(-1,1)">
    <path
       sodipodi:nodetypes="ccccsssc"
       style="color:#000000;opacity:1;fill:#dc322f;fill-opacity:1"
       d="M 9.142857,3 2,10 9.142857,17 20.622295,17 C 21.379668,16.96906 22,16.311523 22,15.6 L 22,4.4 C 22,3.656894 21.506428,3 20.559172,3 Z"
       id="path4165"
       inkscape:connector-curvature="0" />
    <path
       inkscape:connector-curvature="0"
       id="path4169"
       d="m 11.004192,6.0001553 1.332635,0 c 0.01386,-1.6e-4 0.02772,-6.133e-4 0.04171,0 0.339755,0.014933 0.67947,0.17144 0.916186,0.4166669 l 1.707371,1.7083338 1.749085,-1.7083338 c 0.353973,-0.3073335 0.595248,-0.4073336 0.916185,-0.4166669 l 1.332635,0 0,1.3333338 c 0,0.3819593 -0.04571,0.7341989 -0.333159,0.9999999 l -1.707437,1.708333 1.665793,1.666668 c 0.250789,0.250893 0.37479,0.604599 0.374804,0.958332 l 0,1.333334 -1.332635,0 c -0.353548,-1.4e-5 -0.707083,-0.124133 -0.957831,-0.375 l -1.707439,-1.708333 -1.707438,1.708333 c -0.250749,0.25092 -0.604296,0.375 -0.957831,0.375 l -1.332635,0 0,-1.333334 c 0,-0.35372 0.124068,-0.707439 0.374804,-0.958332 L 13.086434,10.041822 11.378995,8.333489 C 11.098156,8.073982 10.974994,7.7078221 11.004192,7.3334891 l 0,-1.3333338 z"
       style="color:#000000;fill:#ffffff;fill-opacity:1" />
    <path
       style="color:#000000;fill:#dc322f;fill-opacity:0.10196078"
       d="m 11.004192,6.0001553 1.332635,0 c 0.01386,-1.6e-4 0.02772,-6.133e-4 0.04171,0 0.339755,0.014933 0.67947,0.17144 0.916186,0.4166669 l 1.707371,1.7083338 1.749085,-1.7083338 c 0.353973,-0.3073335 0.595248,-0.4073336 0.916185,-0.4166669 l 1.332635,0 0,1.3333338 c 0,0.3819593 -0.04571,0.7341989 -0.333159,0.9999999 l -1.707437,1.708333 1.665793,1.666668 c 0.250789,0.250893 0.37479,0.604599 0.374804,0.958332 l 0,1.333334 -1.332635,0 c -0.353548,-1.4e-5 -0.707083,-0.124133 -0.957831,-0.375 l -1.707439,-1.708333 -1.707438,1.708333 c -0.250749,0.25092 -0.604296,0.375 -0.957831,0.375 l -1.332635,0 0,-1.333334 c 0,-0.35372 0.124068,-0.707439 0.374804,-0.958332 L 13.086434,10.041822 11.378995,8.333489 C 11.098156,8.073982 10.974994,7.7078221 11.004192,7.3334891 l 0,-1.3333338 z"
       id="path6"
       inkscape:connector-curvature="0" />
  </g>
</svg>

<svg xmlns="http://www.w3.org/2000/svg" viewBox="0 0 22 22">
 <g transform="translate(-1,1)">
  <path d="m 9.143 3 -7.143 7 7.143 7 11.479 0 c 0.757 -0.031 1.378 -0.688 1.378 -1.4 l 0 -11.2 c 0 -0.743 -0.494 -1.4 -1.441 -1.4" style="fill:#dc322f;opacity:1;fill-opacity:1;color:#000"/>
  <path d="m 11 6 1.333 0 c 0.014 0 0.028 -0.001 0.042 0 0.34 0.015 0.679 0.171 0.916 0.417 l 1.707 1.708 1.749 -1.708 c 0.354 -0.307 0.595 -0.407 0.916 -0.417 l 1.333 0 0 1.333 c 0 0.382 -0.046 0.734 -0.333 1 l -1.707 1.708 1.666 1.667 c 0.251 0.251 0.375 0.605 0.375 0.958 l 0 1.333 -1.333 0 c -0.354 0 -0.707 -0.124 -0.958 -0.375 l -1.707 -1.708 -1.707 1.708 c -0.251 0.251 -0.604 0.375 -0.958 0.375 l -1.333 0 0 -1.333 c 0 -0.354 0.124 -0.707 0.375 -0.958 l 1.707 -1.667 -1.707 -1.708 c -0.281 -0.26 -0.404 -0.626 -0.375 -1 l 0 -1.333 z" style="fill:#fff;fill-opacity:1;color:#000"/>
  <path d="m 11 6 1.333 0 c 0.014 0 0.028 -0.001 0.042 0 0.34 0.015 0.679 0.171 0.916 0.417 l 1.707 1.708 1.749 -1.708 c 0.354 -0.307 0.595 -0.407 0.916 -0.417 l 1.333 0 0 1.333 c 0 0.382 -0.046 0.734 -0.333 1 l -1.707 1.708 1.666 1.667 c 0.251 0.251 0.375 0.605 0.375 0.958 l 0 1.333 -1.333 0 c -0.354 0 -0.707 -0.124 -0.958 -0.375 l -1.707 -1.708 -1.707 1.708 c -0.251 0.251 -0.604 0.375 -0.958 0.375 l -1.333 0 0 -1.333 c 0 -0.354 0.124 -0.707 0.375 -0.958 l 1.707 -1.667 -1.707 -1.708 c -0.281 -0.26 -0.404 -0.626 -0.375 -1 l 0 -1.333 z" style="fill:#dc322f;fill-opacity:0.102;color:#000"/>
 </g>
</svg>
